images/svg/6ter_projet.svg

<?xml version="1.0" encoding="UTF-8" standalone="no"?>
<!-- Created with Inkscape (http://www.inkscape.org/) -->

<svg
   xmlns:dc="http://purl.org/dc/elements/1.1/"
   xmlns:cc="http://creativecommons.org/ns#"
   xmlns:rdf="http://www.w3.org/1999/02/22-rdf-syntax-ns#"
   xmlns:svg="http://www.w3.org/2000/svg"
   xmlns="http://www.w3.org/2000/svg"
   version="1.1"
   width="50"
   height="23"
   viewBox="0 0 40 18.4"
   id="svg2">
  <metadata
     id="metadata12">
    <rdf:RDF>
      <cc:Work
         rdf:about="">
        <dc:format>image/svg+xml</dc:format>
        <dc:type
           rdf:resource="http://purl.org/dc/dcmitype/StillImage" />
        <dc:title></dc:title>
      </cc:Work>
    </rdf:RDF>
  </metadata>
  <defs
     id="defs10" />
  <g
     transform="translate(0,-107.6)"
     id="#ffffffff" />
  <g
     transform="matrix(0.14704226,0,0,0.14704226,-0.16106462,0.09506)"
     id="#e83b71ff">
    <path
       d="M 36.03,1.09 C 45.19,0.7 54.38,1.1 63.54,0.81 63.42,1.31 63.2,2.29 63.08,2.79 57.77,12.41 52.47,22.05 47.11,31.65 c 10.48,-0.4 21.21,2.23 29.66,8.61 6.62,5.03 12.21,11.8 14.83,19.79 C 92.24,56.06 91.95,52.02 92,48 92.02,32.66 91.96,17.33 92.03,1.99 c 8.32,0.02 16.64,0 24.96,0.01 0.03,8 -0.01,15.99 0.01,23.99 5.66,0.03 11.31,0 16.97,0 0.11,6.85 -0.08,13.7 0.1,20.55 2.34,-2.16 3.77,-5.09 6.01,-7.34 7.57,-8.01 17.83,-13.77 28.84,-15.07 7.62,-0.21 15.54,-0.78 22.79,2.04 15.66,4.83 27.49,18.94 30.75,34.84 1.69,-9.39 4.81,-18.95 11.79,-25.79 4.56,-4.51 10.24,-7.81 16.4,-9.58 7.21,-2.43 14.91,-1.45 22.37,-1.64 0.04,7.67 0.13,15.34 0.1,23 -5.63,0 -11.7,-0.62 -16.7,2.52 -6.63,3.48 -9.51,11.35 -9.44,18.49 0.03,18.06 0.05,36.13 -0.01,54.19 -7.97,0.04 -15.93,0.05 -23.9,0 C 222.9,109.47 223.05,96.74 223,84.01 199.18,84 175.37,83.97 151.55,84.03 c 1.86,6.92 6.62,13.14 13.12,16.29 10.37,4.91 24.63,2.13 30.66,-8.18 8.58,-0.32 17.18,-0.07 25.77,-0.12 0.17,4.31 -2.38,7.99 -4.43,11.56 -7.09,11.75 -20.25,18.86 -33.68,20.39 -14.47,2.16 -29.74,-2.52 -40.42,-12.54 -2.79,-2.14 -4.38,-5.48 -7.21,-7.53 -0.07,5.74 0.11,11.49 -0.02,17.23 -0.74,1.68 -2.92,1 -4.34,1.22 -8.37,0.27 -17.11,-1.41 -24.03,-6.36 -7.9,-5.53 -12.5,-14.8 -13.91,-24.17 -3.95,11.51 -12.02,21.74 -22.99,27.25 -13.73,7.26 -31.09,7.14 -44.72,-0.29 C 6.99,109.21 -2.81,86.38 2.56,66.43 4.12,59.7 7.23,53.48 10.39,47.39 17.97,33.63 25.52,19.85 33.02,6.04 34.01,4.4 34.6,2.41 36.03,1.09 m 115.8,62.89 c 15.82,0.03 31.63,0.04 47.45,-0.01 C 197.16,52.08 184.76,43.95 173,45.46 162.9,46.27 154.2,54.24 151.83,63.98 M 117,48.01 c -0.01,12 0.01,24 -0.01,36.01 0.04,4.69 1.45,9.88 5.47,12.73 2.87,2.32 6.7,2.69 10.25,2.87 -1.09,-3.61 -3.18,-6.83 -4.08,-10.51 -4.3,-13.6 -2.18,-28.73 4.75,-41.09 C 127.92,47.98 122.46,47.99 117,48.01 M 43.53,54.68 C 31.9,57.01 23.71,69.38 25.89,81 c 1.35,9.25 8.89,17.16 18.08,18.9 6.79,1.3 14.21,-0.9 19.15,-5.75 7.03,-6.29 9.21,-17.21 5.49,-25.82 C 64.86,58.61 53.77,52.45 43.53,54.68 z"
       id="path6"
       style="fill:#e83b71" />
  </g>
</svg>

<?xml version="1.0" encoding="UTF-8" ?>
<!DOCTYPE svg PUBLIC "-//W3C//DTD SVG 1.1//EN" "http://www.w3.org/Graphics/SVG/1.1/DTD/svg11.dtd">
<svg width="274pt" height="126pt" viewBox="0 0 274 126" version="1.1" xmlns="http://www.w3.org/2000/svg">
<g id="#ffffffff">
</g>
<g id="#e83b71ff">
<path fill="#e83b71" opacity="1.00" d=" M 36.03 1.09 C 45.19 0.70 54.38 1.10 63.54 0.81 C 63.42 1.31 63.20 2.29 63.08 2.79 C 57.77 12.41 52.47 22.05 47.11 31.65 C 57.59 31.25 68.32 33.88 76.77 40.26 C 83.39 45.29 88.98 52.06 91.60 60.05 C 92.24 56.06 91.95 52.02 92.00 48.00 C 92.02 32.66 91.96 17.33 92.03 1.99 C 100.35 2.01 108.67 1.99 116.99 2.00 C 117.02 10.00 116.98 17.99 117.00 25.99 C 122.66 26.02 128.31 25.99 133.97 25.99 C 134.08 32.84 133.89 39.69 134.07 46.54 C 136.41 44.38 137.84 41.45 140.08 39.20 C 147.65 31.19 157.91 25.43 168.92 24.13 C 176.54 23.92 184.46 23.35 191.71 26.17 C 207.37 31.00 219.20 45.11 222.46 61.01 C 224.15 51.62 227.27 42.06 234.25 35.22 C 238.81 30.71 244.49 27.41 250.65 25.64 C 257.86 23.21 265.56 24.19 273.02 24.00 C 273.06 31.67 273.15 39.34 273.12 47.00 C 267.49 47.00 261.42 46.38 256.42 49.52 C 249.79 53.00 246.91 60.87 246.98 68.01 C 247.01 86.07 247.03 104.14 246.97 122.20 C 239.00 122.24 231.04 122.25 223.07 122.20 C 222.90 109.47 223.05 96.74 223.00 84.01 C 199.18 84.00 175.37 83.97 151.55 84.03 C 153.41 90.95 158.17 97.17 164.67 100.32 C 175.04 105.23 189.30 102.45 195.33 92.14 C 203.91 91.82 212.51 92.07 221.10 92.02 C 221.27 96.33 218.72 100.01 216.67 103.58 C 209.58 115.33 196.42 122.44 182.99 123.97 C 168.52 126.13 153.25 121.45 142.57 111.43 C 139.78 109.29 138.19 105.95 135.36 103.90 C 135.29 109.64 135.47 115.39 135.34 121.13 C 134.60 122.81 132.42 122.13 131.00 122.35 C 122.63 122.62 113.89 120.94 106.97 115.99 C 99.07 110.46 94.47 101.19 93.06 91.82 C 89.11 103.33 81.04 113.56 70.07 119.07 C 56.34 126.33 38.98 126.21 25.35 118.78 C 6.99 109.21 -2.81 86.38 2.56 66.43 C 4.12 59.70 7.23 53.48 10.39 47.39 C 17.97 33.63 25.52 19.85 33.02 6.04 C 34.01 4.40 34.60 2.41 36.03 1.09 M 151.83 63.98 C 167.65 64.01 183.46 64.02 199.28 63.97 C 197.16 52.08 184.76 43.95 173.00 45.46 C 162.90 46.27 154.20 54.24 151.83 63.98 M 117.00 48.01 C 116.99 60.01 117.01 72.01 116.99 84.02 C 117.03 88.71 118.44 93.90 122.46 96.75 C 125.33 99.07 129.16 99.44 132.71 99.62 C 131.62 96.01 129.53 92.79 128.63 89.11 C 124.33 75.51 126.45 60.38 133.38 48.02 C 127.92 47.98 122.46 47.99 117.00 48.01 M 43.53 54.68 C 31.90 57.01 23.71 69.38 25.89 81.00 C 27.24 90.25 34.78 98.16 43.97 99.90 C 50.76 101.20 58.18 99.00 63.12 94.15 C 70.15 87.86 72.33 76.94 68.61 68.33 C 64.86 58.61 53.77 52.45 43.53 54.68 Z" />
</g>
</svg>
